slope-uphill.svg

<svg fill="currentColor" viewBox="0 0 24 24"><path d="M22 13v9H2v-3zm-.32-5.94-4.82-2.6.84 2.78-10.12 3a2.895 2.895 0 0 0-4.05-.62 2.895 2.895 0 0 0-.62 4.05c.94 1.3 2.76 1.57 4.05.62.71-.51 1.14-1.32 1.18-2.2l10.12-3 .84 2.78z"/></svg>

<svg  viewBox="0 0 24 24" fill="currentColor"><path  d="M22,13V22H2V19L22,13M21.68,7.06L16.86,4.46L17.7,7.24L7.58,10.24C6.63,8.95 4.82,8.67 3.53,9.62C2.24,10.57 1.96,12.38 2.91,13.67C3.85,14.97 5.67,15.24 6.96,14.29C7.67,13.78 8.1,12.97 8.14,12.09L18.26,9.09L19.1,11.87L21.68,7.06Z"/></svg>
